X: 20731
T: OH NO WE NEVER MENTION HER
Q: "Larghetto"
%R: hornpipe, shottish
B: "Edinburgh Repository of Music" v.2 p.73 #1
F: http://digital.nls.uk/special-collections-of-printed-music/pageturner.cfm?id=87776133
Z: 2015 John Chambers <jc:trillian.mit.edu>
M: 2/4
L: 1/8
K: Bb
F |\
B>A B>c | d>d f>d | {d}c>B c<d | B2 zF |\
{Ac}B>A B>c | d>d f>{=e_e}d | {d}c>B c>d | B2 zf |
f>A A>c | c>B {ABc}Bz/G/ | F<B (Bc/d/) | {=B}c2 zF |\
B>A B>c | d>d f{=e_e}d | {d}c>=B c("_>"e/d/) | B2 z H|]
